Papirus-Dark/16x16/actions/project-development-close.svg

<?xml version="1.0" encoding="UTF-8" standalone="no"?>
<svg xmlns="http://www.w3.org/2000/svg" width="16" height="16" viewBox="0 0 16 16">
 <defs>
  <style type="text/css" id="current-color-scheme">
   .ColorScheme-Text { color:#d3dae3; }
  </style>
 </defs>
 <path style="fill:currentColor;opacity:1" class="ColorScheme-Text" d="M 2 1 C 1 1 1 2 1 2 L 1 14 C 1 15 2 15 2 15 L 9 15 L 9 13 L 3 13 L 3 6 L 13 6 L 13 9 L 15 9 L 15 2 C 15 1 14 1 14 1 L 2 1 z M 11.414062 10.34375 L 10 11.757812 L 11.414062 13.171875 L 10 14.585938 L 11.414062 16 L 12.828125 14.585938 L 14.242188 16 L 15.65625 14.585938 L 14.242188 13.171875 L 15.65625 11.757812 L 14.242188 10.34375 L 12.828125 11.757812 L 11.414062 10.34375 z"/>
</svg>

<?xml version="1.0" encoding="UTF-8" standalone="no"?>
<!--Created with Inkscape (http://www.inkscape.org/)-->
<svg id="svg7384" xmlns:rdf="http://www.w3.org/1999/02/22-rdf-syntax-ns#" style="enable-background:new" xmlns="http://www.w3.org/2000/svg" height="16" width="16" version="1.1" xmlns:cc="http://creativecommons.org/ns#" xmlns:dc="http://purl.org/dc/elements/1.1/">
 <metadata id="metadata90">
  <rdf:RDF>
   <cc:Work rdf:about="">
    <dc:format>image/svg+xml</dc:format>
    <dc:type rdf:resource="http://purl.org/dc/dcmitype/StillImage"/>
   </cc:Work>
  </rdf:RDF>
 </metadata>
 <g id="layer12" transform="translate(-585 -41)">
  <path id="path6716-1" opacity="1" fill="#d3dae3" style="fill:#d3dae3;text-indent:0;block-progression:tb;text-decoration-line:none;enable-background:new;text-transform:none" transform="translate(585 41)" d="m2 1c-1 0-1 1-1 1v12c0 1 1 1 1 1h7v-2h-6v-7h10v3h2v-7c0-1-1-1-1-1h-12zm9.414 9.344l-1.414 1.414 1.414 1.414-1.414 1.414 1.414 1.414 1.414-1.414 1.414 1.414 1.414-1.414-1.414-1.414 1.414-1.414-1.414-1.414-1.414 1.414-1.414-1.414z"/>
 </g>
</svg>
